X: 121158
T: Lonesome Jig
T: Bill the Weaver's 
S: "Johnny O'Leary of Sliabh Luachra" (#122)
Z: B.Black
L: 1/8
M: 12/8
Q: 260
R: slide
K: D
F3 EDE FAD D2E|F2E EFA d2e fdB|
F3 EDE FAD D2B|AFE EFA B3 d3 :|
ABd e2f d2d B2A|ABd efe d2d B2A|
ABd ede g/f/ed dBA|1 FEE EFA B3 d2d :|
|2 FEE EFA d2e fdB||
